assets/media/menu.svg

<svg xmlns="http://www.w3.org/2000/svg" viewBox="0 0 70 70"><path fill="#fff" d="M0 0h20v20H0zM25 0h20v20H25zM50 0h20v20H50zM0 25h20v20H0zM25 25h20v20H25zM50 25h20v20H50zM0 50h20v20H0zM25 50h20v20H25zM50 50h20v20H50z"/></svg>

<svg version="1.1" xmlns="http://www.w3.org/2000/svg" xmlns:xlink="http://www.w3.org/1999/xlink" viewBox="0 0 70 70" xml:space="preserve">
	<path fill="white" d="M0,0 L20,0 L20,20 L0,20z"/>
	<path fill="white" d="M25,0 L45,0 L45,20 L25,20z"/>
	<path fill="white" d="M50,0 L70,0 L70,20 L50,20z"/>
	<path fill="white" d="M0,25 L20,25 L20,45 L0,45z"/>
	<path fill="white" d="M25,25 L45,25 L45,45 L25,45z"/>
	<path fill="white" d="M50,25 L70,25 L70,45 L50,45z"/>
	<path fill="white" d="M0,50 L20,50 L20,70 L0,70z"/>
	<path fill="white" d="M25,50 L45,50 L45,70 L25,70z"/>
	<path fill="white" d="M50,50 L70,50 L70,70 L50,70z"/>
</svg>
